X: 1
T: Polka Piqu\'ee
O: France
R: polka
Z: 2019 John Chambers <jc:trillian.mit.edu>
S: NEFFA 2019 French Jam handout p.1 #2
M: 2/4
L: 1/16
K: C
|:\
"C"G2c2 c2"G"BA | "C"G2e2 e4 | "G"f2e2 d2c2 | "G"def2 "C"e2c2 |\
"C"G2c2 c2"G"BA | "C"G2e2 e4 | "G"f2e2 d2c2 | "G"BcdB "C"c2 :|
|:\
"C"g4 "G"f4 | "G"defd "C"e2c2 | "C"e4 "G"d4 | "G"BcdB "C"c4 |\
"C"g4 "G"f4 | "G"defd "C"e2c2 | "C"e4 "G"d4 | "G"BcdB "C"c4 :|
